ix/shield_bulk.svg

<svg viewBox="0 0 24 24" fill="none" xmlns="http://www.w3.org/2000/svg" height="1em" width="1em">
  <path opacity="0.4" d="M20.4098 6.95994V9.79994L7.39984 19.3399L4.76984 17.3699C4.11984 16.8799 3.58984 15.8299 3.58984 15.0199V6.95994C3.58984 5.83994 4.44984 4.59994 5.49984 4.20994L10.9698 2.15994C11.5398 1.94994 12.4598 1.94994 13.0298 2.15994L18.4998 4.20994C19.5498 4.59994 20.4098 5.83994 20.4098 6.95994Z" fill="#292D32"/>
  <path d="M20.4103 11.1699V15.0199C20.4103 15.8299 19.8803 16.8799 19.2303 17.3699L13.7603 21.4599C13.2803 21.8199 12.6403 21.9999 12.0003 21.9999C11.3603 21.9999 10.7203 21.8199 10.2403 21.4599L8.32031 20.0299L20.4103 11.1699Z" fill="#292D32"/>
</svg>

<svg viewBox="0 0 24 24" fill="none" xmlns="http://www.w3.org/2000/svg" height="1em" width="1em">
  <path opacity=".4" d="M20.41 6.96V9.8L7.4 19.34l-2.63-1.97c-.65-.49-1.18-1.54-1.18-2.35V6.96c0-1.12.86-2.36 1.91-2.75l5.47-2.05c.57-.21 1.49-.21 2.06 0l5.47 2.05c1.05.39 1.91 1.63 1.91 2.75Z" fill="#292D32"/>
  <path d="M20.41 11.17v3.85c0 .81-.53 1.86-1.18 2.35l-5.47 4.09c-.48.36-1.12.54-1.76.54-.64 0-1.28-.18-1.76-.54l-1.92-1.43 12.09-8.86Z" fill="#292D32"/>
</svg>
